!!!COM: Edouard Lalo
!!!CNT: Francais
!!!TXO: Francais
!!!OTL: Beaucoup d'Amour
!!!OPR: 6 Romances Populaires
!!!ONM: No. 2
!!!LYR: Pierre Jean de Be/ranger
!!!ENC: Jacob Pegg
!!!YOR: Romantic French Song 1830-1870, David Tunley, ed., New !!!YOR: York: Garland Publishing, Inc., 1995, vol. 3
!!!ODT: 1849/
!!NB: Vocal melody and text only encoded.
!!NB: First instance of melodic material only encoded.
**kern	**silbe
*clef G2	*
*k[]	*
*M3/4	*
=9	=9
4r	.
8r	.
{8c	{Mal-
8e	-gre/
8a	la
=10	=10
4.g	voix
8e	de
8g	la
8cc	sa-
=11	=11
!! dot added to following note
(4.cc	-ges-
8b)}	-se,}
{8dd	{Je
8cc	vou-
=12	=12
4b	-drais
8d	a-
8e	-mas-
8f	-ser
8a	de
=13	=13
(4a	l'or
8g)}	|}
{8c	{Sou-
8e	-dain
8a	aux
=14	=14
4.g	pieds
8e	de
8g	ma
8cc	mai^-
=15	=15
(4.cc	-tres-
8b)	|
!!slur added
8a}	-se}
{8g	{J'i-
=16	=16
8f#	-rais
8e	de/-
8d	-po-
8cc	-ser
8.b	mon
16a	tre/-
=17	=17
2g}	-sor.}
8r	.
{8g	{A-
=18	=18
8g	-de\le
8a-	a\
8b	ton
8b	moin-
8an	-dre
8b	ca-
=19	=19
(4dd	-pri-
4cc)}	-ce}
{(8dd	{Je
8cc)	|
=20	=20
8f	sa-
8g	-tis-
8a-	-fe-
8cc	-rais
8b-	cha-
8a-	-que
=21	=21
4.g}	jour.}
{8g	{Non,
8g	non
8an	je
=22	=22
4.bn	n'ai
8g	point
8a	d'a-
8bn	-va-
=23	=23
[4cc	-ri-
8cc]}	-ce,}
{8cc	{Mais
8dd	j'ai
8cc	beau-
=24	=24
4b	-coup
(8d	beau-
8e)	|
8f	-coup
8a	d'a-
=25	=25
(4a	-mour,
8g)}	|}
{8cc	{Non,
8b	non
8cc	je
=26	=26
4.dd	n'ai
8cc	point
8b	d'a-
8a	-va-
=27	=27
(4a	-ri-
8g)}	-ce,}
{8e	{Mais
8.a	j'ai
16g	beau-
=28	=28
4.g	-coup
8f	beau-
8.e	-coup
16d	d'a-
=29	=29
[4c	-mour!
8c]}	|}
8r	.
4r	.
*-	*-
